modules/feathericon/icons/map.svg

<svg width="24" height="24" viewBox="0 0 24 24" xmlns="http://www.w3.org/2000/svg"><path d="M9 17l6 1.955V7.045L9 5v12zM3 5l6-2 6 2 6-2v16l-6 2-6-2-6 2V5z" fill="#000" fill-rule="nonzero"/></svg>

<?xml version="1.0" encoding="UTF-8"?>
<svg width="24px" height="24px" viewBox="0 0 24 24" version="1.1" xmlns="http://www.w3.org/2000/svg" xmlns:xlink="http://www.w3.org/1999/xlink">
    <!-- Generator: sketchtool 52.2 (67145) - http://www.bohemiancoding.com/sketch -->
    <title>map</title>
    <desc>Created with sketchtool.</desc>
    <g id="web-app" stroke="none" stroke-width="1" fill="none" fill-rule="evenodd">
        <g id="map" fill="#000000" fill-rule="nonzero">
            <path d="M9,17 L15,18.9549905 L15,7.04500947 L9,5 L9,17 Z M3,5 L9,3 L15,5 L21,3 L21,19 L15,21 L9,19 L3,21 L3,5 Z" id="Shape"></path>
        </g>
    </g>
</svg>
